X: 5554
T: Burren, The
R: reel
M: 4/4
K: Dmajor
~A3B AF~F2|~A3d ~f3z|afef dedB|~A2 DF FEDF|
Az AB AF~F2|~A3d ~f3g|afef dedB|Adfe d3z|
AFBF AFDF|~A3d ~f3z|afef dGBd|ADFD EFDB|
Az AB AF~F2|~A3d ~f3g|afef dedB|Adfe d3z||
fded BAAB|d3f az af|g2fg e~B3|dBAF EFDB|
Az AB AF~F2|~A3d ~f3g|afef dedB|Adfe dcde|
fded BAFA|d3f az af|gz fd e~B3|dBAF EFDB|
Az AB AF~F2|~A3d ~f3g|az ef dGBd|Adfe d4||

